epam-assets/icon-sources/18/add_space.svg

<svg width="18" height="18" viewBox="0 0 18 18" fill="none" xmlns="http://www.w3.org/2000/svg">
<g id="18/add_space">
<g id="icon">
<path d="M1.941 14.5597C2.2345 14.8533 2.5875 15 3 15H9.75V13.5H3V6H15V9.75H16.5V6C16.5 5.5875 16.3532 5.2345 16.0597 4.941C15.7657 4.647 15.4125 4.5 15 4.5H9L7.5 3H3C2.5875 3 2.2345 3.147 1.941 3.441C1.647 3.7345 1.5 4.0875 1.5 4.5V13.5C1.5 13.9125 1.647 14.2657 1.941 14.5597Z" fill="#6C6F80"/>
<path d="M13.5 17.25H15V15H17.25V13.5H15V11.25H13.5V13.5H11.25V15H13.5V17.25Z" fill="#6C6F80"/>
</g>
</g>
</svg>

<svg xmlns="http://www.w3.org/2000/svg" width="18" height="18" fill="none" viewBox="0 0 18 18">
  <path fill="#6C6F80" d="M1.941 14.56c.294.293.646.44 1.059.44h6.75v-1.5H3V6h12v3.75h1.5V6c0-.412-.147-.766-.44-1.059A1.445 1.445 0 0 0 15 4.5H9L7.5 3H3c-.413 0-.765.147-1.059.441A1.443 1.443 0 0 0 1.5 4.5v9c0 .412.147.766.441 1.06Z"/>
  <path fill="#6C6F80" d="M13.5 17.25H15V15h2.25v-1.5H15v-2.25h-1.5v2.25h-2.25V15h2.25v2.25Z"/>
</svg>
